X:1
T:TANEY COUNTY
M:3/4
L:1/4
B:Randolph, Ozark Folksongs, ed. Cohen, p. 154
K:D
F|A2 F|A2 F|E D2|z2 A|(A/ B2) G/|
w:My home's in Tan-ey Coun-ty A-mong_ those
d2 (B/A/)|A2 z|z2 F/G/|A2 F|A2 F|
w:pleas-ant_ hills, And the mem-'ry of my
E D2|z2 D|A2 A|F2 (F/E/)|D2|]
w:birth-place Is on my mem-'ry_ still.